portal/assets/img/component/tab/anatomy-defaulttab.svg

<svg width="144" height="103" viewBox="0 0 144 103" fill="none" xmlns="http://www.w3.org/2000/svg">
<circle cx="132" cy="87" r="12" fill="#344054"/>
<path d="M127.943 93V91.2273L132.085 87.392C132.438 87.0511 132.733 86.7443 132.972 86.4716C133.214 86.1989 133.398 85.9318 133.523 85.6705C133.648 85.4053 133.71 85.1193 133.71 84.8125C133.71 84.4716 133.633 84.178 133.477 83.9318C133.322 83.6818 133.11 83.4905 132.841 83.358C132.572 83.2216 132.267 83.1534 131.926 83.1534C131.57 83.1534 131.259 83.2254 130.994 83.3693C130.729 83.5133 130.525 83.7197 130.381 83.9886C130.237 84.2576 130.165 84.5777 130.165 84.9489H127.83C127.83 84.1875 128.002 83.5265 128.347 82.9659C128.691 82.4053 129.174 81.9716 129.795 81.6648C130.417 81.358 131.133 81.2045 131.943 81.2045C132.777 81.2045 133.502 81.3523 134.119 81.6477C134.741 81.9394 135.223 82.3447 135.568 82.8636C135.913 83.3826 136.085 83.9773 136.085 84.6477C136.085 85.0871 135.998 85.5208 135.824 85.9489C135.653 86.3769 135.348 86.8523 134.909 87.375C134.47 87.8939 133.85 88.517 133.051 89.2443L131.352 90.9091V90.9886H136.239V93H127.943Z" fill="white"/>
<path d="M123 87L71 87.5" stroke="#344054" stroke-dasharray="2 2"/>
<circle cx="79" cy="16" r="12" fill="#344054"/>
<path d="M81.0057 10.3636V22H78.5455V12.6989H78.4773L75.8125 14.3693V12.1875L78.6932 10.3636H81.0057Z" fill="white"/>
<path d="M76 16H32V58" stroke="#344054" stroke-dasharray="2 2"/>
<path d="M0.568182 58.392V56.3636H10.125V58.392H6.5625V68H4.13068V58.392H0.568182ZM12.9545 68.1648C12.3977 68.1648 11.9015 68.0682 11.4659 67.875C11.0303 67.678 10.6856 67.3883 10.4318 67.0057C10.1818 66.6193 10.0568 66.1383 10.0568 65.5625C10.0568 65.0777 10.1458 64.6705 10.3239 64.3409C10.5019 64.0114 10.7443 63.7462 11.0511 63.5455C11.358 63.3447 11.7064 63.1932 12.0966 63.0909C12.4905 62.9886 12.9034 62.9167 13.3352 62.875C13.8428 62.822 14.2519 62.7727 14.5625 62.7273C14.8731 62.678 15.0985 62.6061 15.2386 62.5114C15.3788 62.4167 15.4489 62.2765 15.4489 62.0909V62.0568C15.4489 61.697 15.3352 61.4186 15.108 61.2216C14.8845 61.0246 14.5663 60.9261 14.1534 60.9261C13.7178 60.9261 13.3712 61.0227 13.1136 61.2159C12.8561 61.4053 12.6856 61.6439 12.6023 61.9318L10.3636 61.75C10.4773 61.2197 10.7008 60.7614 11.0341 60.375C11.3674 59.9848 11.7973 59.6856 12.3239 59.4773C12.8542 59.2652 13.4678 59.1591 14.1648 59.1591C14.6496 59.1591 15.1136 59.2159 15.5568 59.3295C16.0038 59.4432 16.3996 59.6193 16.7443 59.858C17.0928 60.0966 17.3674 60.4034 17.5682 60.7784C17.7689 61.1496 17.8693 61.5947 17.8693 62.1136V68H15.5739V66.7898H15.5057C15.3655 67.0625 15.178 67.303 14.9432 67.5114C14.7083 67.7159 14.4261 67.8769 14.0966 67.9943C13.767 68.108 13.3864 68.1648 12.9545 68.1648ZM13.6477 66.4943C14.0038 66.4943 14.3182 66.4242 14.5909 66.2841C14.8636 66.1402 15.0777 65.947 15.233 65.7045C15.3883 65.4621 15.4659 65.1875 15.4659 64.8807V63.9545C15.3902 64.0038 15.286 64.0492 15.1534 64.0909C15.0246 64.1288 14.8788 64.1648 14.7159 64.1989C14.553 64.2292 14.3902 64.2576 14.2273 64.2841C14.0644 64.3068 13.9167 64.3277 13.7841 64.3466C13.5 64.3883 13.2519 64.4545 13.0398 64.5455C12.8277 64.6364 12.6629 64.7595 12.5455 64.9148C12.428 65.0663 12.3693 65.2557 12.3693 65.483C12.3693 65.8125 12.4886 66.0644 12.7273 66.2386C12.9697 66.4091 13.2765 66.4943 13.6477 66.4943ZM19.7926 68V56.3636H22.2131V60.7386H22.2869C22.393 60.5038 22.5464 60.2652 22.7472 60.0227C22.9517 59.7765 23.2169 59.572 23.5426 59.4091C23.8722 59.2424 24.2813 59.1591 24.7699 59.1591C25.4063 59.1591 25.9934 59.3258 26.5312 59.6591C27.0691 59.9886 27.4991 60.4867 27.821 61.1534C28.143 61.8163 28.304 62.6477 28.304 63.6477C28.304 64.6212 28.1468 65.4432 27.8324 66.1136C27.5218 66.7803 27.0975 67.286 26.5597 67.6307C26.0256 67.9716 25.4271 68.142 24.7642 68.142C24.2945 68.142 23.8949 68.0644 23.5653 67.9091C23.2396 67.7538 22.9725 67.5587 22.7642 67.3239C22.5559 67.0852 22.3968 66.8447 22.2869 66.6023H22.179V68H19.7926ZM22.1619 63.6364C22.1619 64.1553 22.2339 64.608 22.3778 64.9943C22.5218 65.3807 22.7301 65.6818 23.0028 65.8977C23.2756 66.1098 23.607 66.2159 23.9972 66.2159C24.3911 66.2159 24.7244 66.108 24.9972 65.892C25.2699 65.6723 25.4763 65.3693 25.6165 64.983C25.7604 64.5928 25.8324 64.1439 25.8324 63.6364C25.8324 63.1326 25.7623 62.6894 25.6222 62.3068C25.482 61.9242 25.2756 61.625 25.0028 61.4091C24.7301 61.1932 24.3949 61.0852 23.9972 61.0852C23.6032 61.0852 23.2699 61.1894 22.9972 61.3977C22.7282 61.6061 22.5218 61.9015 22.3778 62.2841C22.2339 62.6667 22.1619 63.1174 22.1619 63.6364ZM33.6222 68V59.2727H36.0426V68H33.6222ZM34.8381 58.1477C34.4782 58.1477 34.1695 58.0284 33.9119 57.7898C33.6581 57.5473 33.5312 57.2576 33.5312 56.9205C33.5312 56.5871 33.6581 56.3011 33.9119 56.0625C34.1695 55.8201 34.4782 55.6989 34.8381 55.6989C35.1979 55.6989 35.5047 55.8201 35.7585 56.0625C36.0161 56.3011 36.1449 56.5871 36.1449 56.9205C36.1449 57.2576 36.0161 57.5473 35.7585 57.7898C35.5047 58.0284 35.1979 58.1477 34.8381 58.1477ZM42.6236 59.2727V61.0909H37.3679V59.2727H42.6236ZM38.5611 57.1818H40.9815V65.3182C40.9815 65.5417 41.0156 65.7159 41.0838 65.8409C41.152 65.9621 41.2467 66.0473 41.3679 66.0966C41.4929 66.1458 41.6368 66.1705 41.7997 66.1705C41.9134 66.1705 42.027 66.161 42.1406 66.142C42.2543 66.1193 42.3414 66.1023 42.402 66.0909L42.7827 67.892C42.6615 67.9299 42.491 67.9735 42.2713 68.0227C42.0516 68.0758 41.7846 68.108 41.4702 68.1193C40.8868 68.142 40.3755 68.0644 39.9361 67.8864C39.5005 67.7083 39.1615 67.4318 38.919 67.0568C38.6766 66.6818 38.5573 66.2083 38.5611 65.6364V57.1818ZM48.0838 68.1705C47.1861 68.1705 46.4134 67.9886 45.7656 67.625C45.1217 67.2576 44.6255 66.7386 44.277 66.0682C43.9285 65.3939 43.7543 64.5966 43.7543 63.6761C43.7543 62.7784 43.9285 61.9905 44.277 61.3125C44.6255 60.6345 45.116 60.1061 45.7486 59.7273C46.3849 59.3485 47.1312 59.1591 47.9872 59.1591C48.563 59.1591 49.099 59.2519 49.5952 59.4375C50.0952 59.6193 50.5308 59.8939 50.902 60.2614C51.277 60.6288 51.5687 61.0909 51.777 61.6477C51.9853 62.2008 52.0895 62.8485 52.0895 63.5909V64.2557H44.7202V62.7557H49.8111C49.8111 62.4072 49.7353 62.0985 49.5838 61.8295C49.4323 61.5606 49.2221 61.3504 48.9531 61.1989C48.688 61.0436 48.3793 60.9659 48.027 60.9659C47.6596 60.9659 47.3338 61.0511 47.0497 61.2216C46.7694 61.3883 46.5497 61.6136 46.3906 61.8977C46.2315 62.178 46.1501 62.4905 46.1463 62.8352V64.2614C46.1463 64.6932 46.2259 65.0663 46.3849 65.3807C46.5478 65.6951 46.777 65.9375 47.0724 66.108C47.3679 66.2784 47.7183 66.3636 48.1236 66.3636C48.3925 66.3636 48.6387 66.3258 48.8622 66.25C49.0857 66.1742 49.277 66.0606 49.4361 65.9091C49.5952 65.7576 49.7164 65.572 49.7997 65.3523L52.0384 65.5C51.9247 66.0379 51.6918 66.5076 51.3395 66.9091C50.991 67.3068 50.5402 67.6174 49.9872 67.8409C49.438 68.0606 48.8035 68.1705 48.0838 68.1705ZM53.669 68V59.2727H55.9759V60.8125H56.0781C56.2599 60.3011 56.563 59.8977 56.9872 59.6023C57.4115 59.3068 57.919 59.1591 58.5099 59.1591C59.1084 59.1591 59.6179 59.3087 60.0384 59.608C60.4588 59.9034 60.7391 60.3049 60.8793 60.8125H60.9702C61.1482 60.3125 61.4702 59.9129 61.9361 59.6136C62.4058 59.3106 62.9607 59.1591 63.6009 59.1591C64.4152 59.1591 65.0762 59.4186 65.5838 59.9375C66.0952 60.4527 66.3509 61.1837 66.3509 62.1307V68H63.9361V62.608C63.9361 62.1231 63.8073 61.7595 63.5497 61.517C63.2921 61.2746 62.9702 61.1534 62.5838 61.1534C62.1444 61.1534 61.8016 61.2936 61.5554 61.5739C61.3092 61.8504 61.1861 62.2159 61.1861 62.6705V68H58.8395V62.5568C58.8395 62.1288 58.7164 61.7879 58.4702 61.5341C58.2277 61.2803 57.9077 61.1534 57.5099 61.1534C57.241 61.1534 56.9986 61.2216 56.7827 61.358C56.5705 61.4905 56.402 61.678 56.277 61.9205C56.152 62.1591 56.0895 62.4394 56.0895 62.7614V68H53.669Z" fill="#344054"/>
<rect y="86" width="68" height="2" fill="#0F71BB"/>
</svg>

<svg width="144" height="103" viewBox="0 0 144 103" fill="none" xmlns="http://www.w3.org/2000/svg"><circle cx="132" cy="87" r="12" fill="#344054"/><path d="M127.943 93v-1.773l4.142-3.835c.353-.34.648-.648.887-.92.242-.273.426-.54.551-.801.125-.266.187-.552.187-.859 0-.34-.077-.634-.233-.88a1.526 1.526 0 0 0-.636-.574 1.995 1.995 0 0 0-.915-.205c-.356 0-.667.072-.932.216-.265.144-.469.35-.613.62-.144.269-.216.589-.216.96h-2.335c0-.761.172-1.422.517-1.983.344-.56.827-.994 1.448-1.301.622-.307 1.338-.46 2.148-.46.834 0 1.559.147 2.176.443.622.291 1.104.697 1.449 1.216s.517 1.113.517 1.784c0 .44-.087.873-.261 1.3-.171.429-.476.904-.915 1.427-.439.519-1.059 1.142-1.858 1.87l-1.699 1.664v.08h4.887V93h-8.296Z" fill="#fff"/><path d="m123 87-52 .5" stroke="#344054" stroke-dasharray="2 2"/><circle cx="79" cy="16" r="12" fill="#344054"/><path d="M81.006 10.364V22h-2.46v-9.301h-.069l-2.665 1.67v-2.181l2.881-1.824h2.313Z" fill="#fff"/><path d="M76 16H32v42" stroke="#344054" stroke-dasharray="2 2"/><path d="M.568 58.392v-2.028h9.557v2.028H6.562V68H4.131v-9.608H.568Zm12.386 9.773c-.556 0-1.053-.097-1.488-.29a2.397 2.397 0 0 1-1.034-.87c-.25-.386-.375-.867-.375-1.442 0-.485.089-.892.267-1.222.178-.33.42-.595.727-.795a3.51 3.51 0 0 1 1.046-.455 7.969 7.969 0 0 1 1.238-.216 31.4 31.4 0 0 0 1.227-.148c.311-.049.537-.12.677-.216a.475.475 0 0 0 .21-.42v-.034c0-.36-.114-.638-.341-.835-.224-.197-.542-.296-.955-.296-.435 0-.782.097-1.04.29-.257.19-.427.428-.51.716l-2.24-.182a3.05 3.05 0 0 1 .671-1.375c.333-.39.763-.69 1.29-.898.53-.212 1.144-.318 1.84-.318.486 0 .95.057 1.393.17.447.114.843.29 1.187.529.349.239.623.545.824.92.2.372.301.817.301 1.336V68h-2.295v-1.21h-.068c-.14.272-.328.513-.563.721a2.605 2.605 0 0 1-.846.483c-.33.114-.71.17-1.143.17Zm.694-1.67c.356 0 .67-.07.943-.21a1.67 1.67 0 0 0 .642-.58c.155-.243.233-.517.233-.824v-.926c-.076.049-.18.094-.313.136a5.692 5.692 0 0 1-.437.108c-.163.03-.326.059-.489.085l-.443.063a2.991 2.991 0 0 0-.744.199 1.19 1.19 0 0 0-.494.369.9.9 0 0 0-.177.568c0 .33.12.581.358.756.243.17.55.255.92.255ZM19.793 68V56.364h2.42v4.375h.074c.106-.235.26-.474.46-.716.205-.247.47-.451.796-.614.33-.167.738-.25 1.227-.25a3.28 3.28 0 0 1 1.761.5c.538.33.968.828 1.29 1.494.322.663.483 1.495.483 2.495 0 .973-.157 1.795-.472 2.466-.31.666-.735 1.172-1.272 1.517a3.267 3.267 0 0 1-1.796.511c-.47 0-.87-.078-1.199-.233a2.48 2.48 0 0 1-.8-.585 2.976 2.976 0 0 1-.478-.722h-.108V68h-2.386Zm2.369-4.364c0 .52.072.972.216 1.358.144.387.352.688.625.904.273.212.604.318.994.318.394 0 .727-.108 1-.324.273-.22.48-.523.62-.909.143-.39.215-.84.215-1.347 0-.503-.07-.947-.21-1.33-.14-.382-.346-.681-.62-.897-.272-.216-.607-.324-1.005-.324-.394 0-.727.104-1 .313-.269.208-.475.503-.62.886-.143.383-.215.833-.215 1.352ZM33.622 68v-8.727h2.42V68h-2.42Zm1.216-9.852c-.36 0-.669-.12-.926-.358a1.16 1.16 0 0 1-.38-.87c0-.333.126-.619.38-.858.258-.242.566-.363.926-.363.36 0 .667.121.92.364.258.238.387.524.387.857 0 .338-.129.627-.387.87-.253.238-.56.358-.92.358Zm7.786 1.125v1.818h-5.256v-1.818h5.256Zm-4.063-2.091h2.42v8.136c0 .224.035.398.103.523a.564.564 0 0 0 .284.256c.125.049.269.074.432.074.113 0 .227-.01.34-.029l.262-.051.38 1.801a6.777 6.777 0 0 1-.51.13 4.09 4.09 0 0 1-.802.097c-.583.023-1.094-.055-1.534-.233a2.142 2.142 0 0 1-1.017-.83c-.242-.374-.362-.848-.358-1.42v-8.454Zm9.523 10.989c-.898 0-1.67-.182-2.318-.546a3.736 3.736 0 0 1-1.489-1.557c-.349-.674-.523-1.471-.523-2.392 0-.898.175-1.686.523-2.364a3.864 3.864 0 0 1 1.472-1.585c.636-.378 1.382-.568 2.238-.568.576 0 1.112.093 1.608.279.5.181.936.456 1.307.823.375.368.667.83.875 1.387.208.553.313 1.2.313 1.943v.665h-7.37v-1.5h5.091c0-.349-.076-.657-.227-.926a1.627 1.627 0 0 0-.63-.631 1.798 1.798 0 0 0-.927-.233c-.367 0-.693.085-.977.256a1.8 1.8 0 0 0-.66.676c-.159.28-.24.592-.244.937v1.426c0 .432.08.805.239 1.12.163.314.392.556.687.727.296.17.646.256 1.052.256.268 0 .515-.038.738-.114a1.55 1.55 0 0 0 .574-.34c.16-.152.28-.338.364-.558l2.238.148a3.057 3.057 0 0 1-.698 1.41c-.349.397-.8.707-1.353.93-.549.22-1.184.33-1.903.33ZM53.669 68v-8.727h2.307v1.54h.102a2.42 2.42 0 0 1 .91-1.21c.423-.296.931-.444 1.522-.444.598 0 1.108.15 1.528.449.42.295.701.697.841 1.205h.091c.178-.5.5-.9.966-1.2.47-.302 1.025-.454 1.665-.454.814 0 1.475.26 1.983.779.511.515.767 1.246.767 2.193V68h-2.415v-5.392c0-.485-.129-.848-.386-1.091a1.358 1.358 0 0 0-.966-.364c-.44 0-.782.14-1.029.42-.246.277-.369.643-.369 1.097V68H58.84v-5.443c0-.428-.124-.77-.37-1.023-.242-.254-.562-.38-.96-.38-.269 0-.511.068-.727.204-.212.133-.381.32-.506.563a1.788 1.788 0 0 0-.188.84V68h-2.42Z" fill="#344054"/><path fill="#0F71BB" d="M0 86h68v2H0z"/></svg>
